X:1
T:Nox Praecessit, CM
T:John Baptiste Calkin, 1875
T:Nox Praecessit, CM
T:Public Domain
C:John Baptiste Calkin, 1875
Z:Public Domain
%%score ( 1 2 ) 3
L:1/8
M:4/4
K:G
V:1 treble 
V:2 treble 
V:3 bass 
V:1
 [DB]2 [^DB][DB] [EG]2 [EA]2 | [^DB]2 [EB]2 [Ec]2 [EA]2 | [DG]2 [GB]2 [Ed]3 [Fc] | [GB]6 G2 | %4
 [Ee]3 [Bd] [Ac]2 [^GB]2 | A2 [EB]2 [Ec]2 E2 | [EF]2 [DG]2 [FB]3 [FA] | G8 |] %8
V:2
 x8 | x8 | x8 | x6 G2 | x8 | A2 x2 E2 x2 | x8 | G8 |] %8
V:3
 [G,,G,]2 [B,,F,][B,,F,] [E,G,]2 [C,E,]2 | [B,,F,]2 [E,^G,]2 [A,,A,]2 [C,A,]2 | %2
 [D,B,]2 [D,G,]2 [D,A,]3 [D,D] | [G,D]6 [G,B,]2 | [C,C]3 [D,=F] [E,E]2 [E,D]2 | %5
 [A,,C]2 [^G,,D]2 [A,,C]2 [C,C]2 | [D,C]2 [D,B,]2 [D,D]3 [D,C] | [G,,B,]8 |] %8

